X: 1
T: Captain Menzies
Z: Thing
S: https://thesession.org/tunes/15333#setting28576
R: reel
M: 4/4
L: 1/8
K: Amin
|: A^GAc BdcB | cde^f gdB^G |1 A^GAB cedc | BEcB BAA2 :|
|2 AcBd cedf | ecdB BAA2 || aecA ECA,C |
B,G,DG, B,G, G,/G,/G, | aecA ECA,C | B,CDB, CA, A,/A,/A, | aecA ECA,C |
B,G,DG, B,G,G,B, | A,CB,D CEDf | ecdB BAA2 |]
